src/assets/alert-success-icon.svg

<svg width="32" height="32" viewBox="0 0 32 32" fill="none" xmlns="http://www.w3.org/2000/svg">
<circle cx="16" cy="16" r="16" fill="#00B059"/>
<path d="M13.8462 22C13.7094 21.9995 13.5742 21.9686 13.4489 21.9092C13.3237 21.8498 13.211 21.7631 13.118 21.6546L8.27037 16.0742C8.08916 15.8652 7.99209 15.5869 8.00051 15.3004C8.00892 15.014 8.12214 14.7429 8.31526 14.5468C8.50838 14.3507 8.76557 14.2457 9.03026 14.2548C9.29495 14.2639 9.54545 14.3864 9.72666 14.5954L13.8362 19.3339L22.2248 9.40354C22.3099 9.28882 22.4158 9.19415 22.536 9.12534C22.6562 9.05653 22.7881 9.01502 22.9236 9.00338C23.0592 8.99174 23.1955 9.01021 23.3242 9.05765C23.4528 9.10508 23.5712 9.18049 23.672 9.27924C23.7728 9.37799 23.8539 9.49799 23.9102 9.63187C23.9666 9.76576 23.9971 9.9107 23.9998 10.0578C24.0025 10.2049 23.9774 10.351 23.926 10.4873C23.8747 10.6235 23.7981 10.7469 23.7011 10.8499L14.5843 21.6438C14.4922 21.7543 14.3799 21.843 14.2546 21.9043C14.1293 21.9656 13.9936 21.9981 13.8561 22H13.8462Z" fill="white"/>
</svg>

<svg width="32" height="32" fill="none" xmlns="http://www.w3.org/2000/svg"><circle cx="16" cy="16" r="16" fill="#00B059"/><path d="M13.846 22a.934.934 0 01-.397-.09 1.003 1.003 0 01-.331-.255l-4.848-5.58A1.133 1.133 0 018 15.3c.009-.286.122-.557.315-.753a.957.957 0 01.715-.292.968.968 0 01.697.34l4.11 4.739 8.388-9.93c.085-.115.19-.21.311-.279a.942.942 0 01.788-.067.985.985 0 01.348.221c.1.099.182.219.238.353a1.153 1.153 0 01-.209 1.218l-9.117 10.794a1 1 0 01-.33.26.935.935 0 01-.398.096h-.01z" fill="#fff"/></svg>
